X:1
T:06 - Hor vedi amor
T:Luca Marenzio (1556 - 1599) 1º Libro di Madrigali a quattro voci (Venetia, 1592)
T:Francesco Petrarca
T:06 - Hor vedi amor
T:© 2018 Ed. Marcos Mato
T:© 2018 Ed. Marcos Mato
T:© 2018 Ed. Marcos Mato
T:© 2018 Ed. Marcos Mato
T:© 2018 Ed. Marcos Mato
T:© 2018 Ed. Marcos Mato
C:Luca Marenzio (1556 - 1599)
C:1º Libro di Madrigali a quattro voci (Venetia, 1592)
Z:Francesco Petrarca
Z:© 2018 Ed. Marcos Mato
%%score [ 1 2 3 4 ]
L:1/8
M:4/4
K:C
V:1 treble nm="Soprano" snm="Sop."
V:2 alto2 nm="Alto" snm="A."
V:3 alto transpose=-12 nm="Tenor" snm="T."
V:4 tenor nm="Basso" snm="Bajo"
V:1
 d4 | [Gg]2 |[M:4/2] d8 B4 e4 | d4 z2 g2 gfed c4 | B4 z2 e2 edcB A2 d2- | d2 c4 B2 c8 | %6
w: ||Hor ve- di,\_A-|mor, che gio- ve- net- ta don-|na, che gio- ve- net- ta don- *|* * * na,|
 z2 g2 gfed c4 c4 | z2 e2 edcB A2 G2 A4 | d4 z2 e2 c2 c2 d2 A2 | B3 c d2 d2 c4 B4 | %10
w: che gio- ve- net- ta don- na,|che gio- ve- net- ta don- * *|na tuo re- gno sprezz', e|del mio mal non cu- ra,|
 z4 z2 c2 d6 e2 | f4 e4 A4 B4 | c4 d4 B2 c4 A2 | B2 c4 B2 c3 B/A/ G4 | z4 z2 e2 e2 e2 d4 | %15
w: non cu- *|* ra, e tra|duo ta' ne- mi- ci\_è|sí se- cu- * * * ra,|et el- la\_in trec-|
 d4 e4 d2 g4 f2- | f2 e2 d4 c4 z4 | z4 z2 c2 c2 c2 c2 BA | B2 ^c2 d4 d4 z4 | d8 =c8- | c8 B8 | %21
w: cie\_e'n gon- na, tu se'|_ ar- ma- to,|et el- la\_in trec- * *|* cie\_e'n gon- na,|si sie-|* de,\_e|
 c8 d4 d2 d2 | e3 d/c/ B2 c2 d2 cB A4 | B6 c2 d8 | z4 e8 d4- | d4 c6 BA B4 | c4 z4 z2 g4 f2- | %27
w: scal- za,\_in mezz' i|fio- * * * ri\_e l'her- * * *|* * ba.|I' son|_ pre- * * *|gion; ma se|
 f2 e2 d4 c4 d2 G2 | z2 g4 f4 e2 d2 g2 | ^f4 g4 GABc d4 | B3 c d4 G4 g3 =f | %31
w: _ pie- tà\_an- cor ser- ba,|ma se pie- tà\_an- cor|ser- ba l'ar- * * * *|co tuo sal- do,\_e qual- ch'u-|
 e2 g2 cdef g2 g2 z2 e2 | e3 d c2 e2 f4 e4 | d8 d8 | d8 g8 | g4 z2 e2 e3 d c2 e2 | %36
w: na sa- et- * * * * ta, e|qual- ch'u- na sa- et- ta,|l'ar- co|tuo sal-|do, e qual- ch'u- na sa-|
 ABcd e2 e2 z4 e2 f2 | g4 e2 f2 g4 g2 f2 | e8 z4 B4 | e8 d4 g4 | z4 G4 d4 B4 | A8 B8 |] %42
w: et- * * * * ta, fa di|te, fa di te e di|me, si-|gnor, si- gnor,|si- gnor, ven-|det- ta.|
V:2
 G4 | [G,c]2 |[M:4/2] z16 | G8 E4 A4 | G4 z2 c2 cBAG ^F4 | G4 z2 G2 G=FED C4 | B,4 G4 E4 A4 | %7
w: |||Hor ved', A-|mor, che gio- ve- net- ta don-|na, che gio- ve- net- ta don-|na, hor ve- di,\_A-|
 G2 G2 cBAG ^F2 G4 F2 | G8 z2 A2 ^F2 F2 | G4 D4 E3 =F G2 D2 | FEFG A6 GF G4 | A8 z8 | z16 | %13
w: mor, che gio- ve- net- ta don- * *|na tuo re- gno|sprezz' e del mio mal non|cu- * * * * * * *|ra.||
 z4 G6 F4 E2 | D4 E2 G4 A2 B2 AG | A2 B2 c4 B2 G2 A4 | c4 B4 G8- | G4 z2 A2 A2 A2 A2 GF | %18
w: Tu se'\_ar- ma-|to,\_et el- la in trec- * *|* cie\_e'n gon- na, tu se'|ar- ma- to,|_ et el- la\_in trec- * *|
 G2 A2 A4 A8 | z4 A4 A8- | A8 ^G8 | A8 B4 A2 B2 | c2 CD EFGE ^F2 G4 F2 | G4 B8 A4- | %24
w: * cie\_e'n gon- na|si sie-|* de,\_e|scalz', in mez' i|fio- ri\e _ _ _ _ _ l'her- * *|ba. I son|
 A4 B4 c2 B2 A2 G2 | A8 z8 | z8 G4 A4 | B2 c4 B2 A4 G4 | G4 A4 B2 c4 B2 | A4 G4 B8 | G8 B8 | %31
w: _ pre- gion; _ _ _|_|ma se|pie- tà\_an- cor ser- ba,|ma se pie- tà\_an- cor|ser- ba l'ar-|co tuo|
 c2 C2 G3 F E2 G2 CDEF | G2 G2 z2 G2 A2 A2 G3 A | B4 B4 z2 G2 G,3 A, | B,2 D2 DCB,A, B,4 C4 | %35
w: sald', e qual- ch'u- na sa- et- * * *|* ta, e qual- ch'u- na sa-|et- ta, e qual- ch'u-|na sa- et- * * * * ta,|
 z2 B,2 G3 F E2 G2 A3 B | c2 A2 GFED C2 C2 z4 | E2 F2 G4 E2 F2 G4 | G2 F2 E4 D4 G4- | G4 G4 =B8 | %40
w: e qual- ch'u- na, e qual- ch'u-|na sa- et- * * * * ta,|fa di te, fa di te|e di me, si- gnor,|_ si- gnor,|
 G6 E2 ^F4 G4- | G4 ^F4 G8 |] %42
w: ven- * * det-|* * ta.|
V:3
 G4 | [G,G]2 |[M:4/2] z16 | z16 | z2 G2 GFED C4 D2 D2 | B,2 E2 D4 z2 G2 EDEF | GF/E/ D2 E4 z4 F4 | %7
w: ||||Che gio- ve- net- ta don- na, hor|ve- di,\_A- mor, che gio- ve- net- ta|don- * * * na, che|
 EDCB, A,4 D8 | z2 G2 E2 E2 F4 D4- | D4 z4 z4 z2 G2 | C3 D E2 E2 D8- | D4 ^C4 z2 D4 E2- | %12
w: gio- ve- net- ta don- na|tuo re- gno sprez- za,|_ e|del mio mal non cu-|* ra, e tra|
 E2 F4 G4 E2 F3 E | D2 C2 D4 C8 | z4 z2 C2 C2 C2 G2 ^FE | ^F2 F2 C4 G4 z4 | z4 z2 D2 E2 E2 E2 DC | %17
w: _ duo ta' ne- mi- ci\_è|si se- cu- ra,|et el- la\_in trec- * *|* cie\_e'n gon- na,|et el- la\_in trec- * *|
 D2 E2 F8 E4 | z2 E2 F2 F2 F2 ED E2 ^F2 | G4 =F4 E8 | E8 E8 | E8 G4 ^F2 G2 | CDE=F G2 E2 D8 | %23
w: * cie\_e'n gon- na,|et el- la\_in trec- * * * cie\_e'n|gon- na si|sie- de,\_e|scalz', in mezz' i|fio- * * * * ri\_e l'her-|
 G,A,B,C D4 z8 | z4 G8 F4- | F4 E4 D4 z2 G2- | G2 F4 E2 D4 C4 | G4 G2 G4 F4 E2 | D4 C4 G4 G4 | %29
w: * * * * ba.|I son|_ pre- gion; ma|_ se pie- tà\_an- cor|ser- ba, ma se pie-|tà\_an- cor ser- ba|
 z8 z4 G,A,B,C | D4 B,3 C D4 G,2 G2- | GF E4 G2 CDEF G2 G2 | z2 E2 E3 D C2 C2 CDEF | %33
w: l'ar- * * *|* co tuo sald', e qual-|* ch'u- na sa- et- * * * * ta,|e qual- ch'u- na sa- et- * * *|
 G2 G2 G,A,B,C D4 B,3 C | D2 B,2 z2 G2 G3 F E2 G2 | GFED C2 C2 z2 E2 E3 D | C2 F2 EFGF E2 E2 z4 | %37
w: * ta, l'ar- * * * * co tuo|sal- do e qual- ch'u- na sa-|et- * * * * ta, e qual- ch'u-|na sa- et- * * * * ta,|
 C2 D2 E4 C2 D2 E4 | E2 F2 G8 G,4 | C8 z4 D4 | B,2 B,2 C6 B,A, B,2 C2 | D8 D8 |] %42
w: fa di te, fa di te|e di me, si-|gnor, si-|gnor, ven- det- * * * *|* ta.|
V:4
 G,4 | [C,E]2 |[M:4/2] z16 | z16 | z16 | G,8 E,4 A,4 | G,4 z2 C2 CB,A,G, F,4 | C4 z4 z4 z2 D2 | %8
w: |||||Hor ve- di,\_A-|mor, che gio- ve- net- ta don-|na tuo|
 B,2 B,2 C4 A,4 z2 D2 | G,3 A, B,2 B,2 A,4 G,2 G,2 | A,3 B, C2 C2 _B,8 | A,8 z8 | z16 | %13
w: re- gno sprez- za, e|del mio mal non cu- ra, e|del mio mal non cu-|ra.||
 G,8 A,4 C4 | B,4 C4 z8 | z16 | z4 z2 G,2 C2 C2 C2 B,A, | B,2 C2 F,8 C4 | %18
w: Tu se' ar-|ma- to,||et el- la\_in trec- * *|* cie\_e'n gon- na,|
 z2 A,2 D2 D2 D2 CB, ^C2 D2 | G,4 D4 A,8 | A,8 E,8 | A,8 G,4 z4 | z16 | z4 G,8 F,4- | %24
w: et el- la\_in trec- * * * cie\_e'n|gon- na si|sie- de,\_e|scal- za,||i son|
 F,4 E,4 A,8- | A,8 z4 G,4 | A,4 B,2 C4 B,2 A,4 | G,4 G,4 A,4 B,2 C2- | C2 B,2 A,4 G,8 | z8 G,8 | %30
w: _ pre- gion;|_ ma|se pie- tà\_an- cor ser-|ba, ma se pie- tà\_an-|* cor ser- ba|l'ar-|
 G,8 G,8 | C8 C4 z2 C2 | C3 B, A,2 C2 F,G,A,B, C2 C2 | G,A,B,C D4 B,3 C D4 | %34
w: co tuo|sal- do, e|qual- ch'u- na sa- et- * * * * ta,|l'ar- * * * * co tuo sal-|
 G,4 G,3 F, E,2 G,2 C,D,E,F, | G,2 G,2 z2 C,2 C3 B, A,2 C2 | F,G,A,B, C2 C2 z4 C2 D2 | %37
w: do,\_e qual- ch'u- na sa- et- * * *|* ta, e qual- ch'u- na sa-|et- * * * * ta, fa di|
 E4 C2 D2 E4 E2 D2 | C4 C,4 G,8 | z4 C,4 G,8- | G,4 E,4 D,8- | D,8 G,8 |] %42
w: te, fa di te e di|me, si- gnor,|si- gnor,|_ ven- det-|* ta.|

